contributed-vectors/cometin.svg

<svg xmlns="http://www.w3.org/2000/svg" xml:space="preserve" style="fill-rule:evenodd;clip-rule:evenodd;stroke-linejoin:round;stroke-miterlimit:2" viewBox="0 0 192 192"><path d="M164.5 21.5c0-5.519-4.481-10-10-10h-133c-5.519 0-10 4.481-10 10v133c0 5.519 4.481 10 10 10h133c5.519 0 10-4.481 10-10v-133Z" style="fill:#979797" transform="translate(8 8)"/><path d="M117.646 19.5H162.5c5.519 0 10 4.481 10 10v44.854l-49.512 49.512a37.85 37.85 0 0 1-53.526 0l-1.328-1.328a37.85 37.85 0 0 1 0-53.526L117.646 19.5Z" style="fill:#f9de81"/><path d="M132.045 19.5H162.5c5.519 0 10 4.481 10 10v30.455l-56.521 56.521a27.001 27.001 0 0 1-38.184 0l-2.271-2.271a27.005 27.005 0 0 1 0-38.184L132.045 19.5Z" style="fill:#f8c18c"/><circle cx="96" cy="96" r="20.659" style="fill:#ff837d" transform="scale(1.02934) rotate(45 97.935 91.33)"/><circle cx="47.708" cy="49.419" r="3.879" style="fill:#fcecdc" transform="translate(-6.363 -6.608) scale(1.14336)"/><circle cx="47.708" cy="49.419" r="3.879" style="fill:#fcecdc" transform="translate(-5.37 33.98) scale(1.14336)"/><circle cx="47.708" cy="49.419" r="3.879" style="fill:#fcecdc" transform="translate(20.826 88.068) scale(1.14336)"/><circle cx="47.708" cy="49.419" r="3.879" style="fill:#fcecdc" transform="translate(73.702 83.633) scale(1.14336)"/><circle cx="47.708" cy="49.419" r="3.879" style="fill:#fcecdc" transform="translate(29.099 5.562) scale(.80736)"/><circle cx="47.708" cy="49.419" r="3.879" style="fill:#fcecdc" transform="translate(38.16 -12.063) scale(.80736)"/><circle cx="47.708" cy="49.419" r="3.879" style="fill:#fcecdc" transform="translate(-3.67 27.904) scale(.80736)"/><circle cx="47.708" cy="49.419" r="3.879" style="fill:#fcecdc" transform="translate(2.1 76.311) scale(.80736)"/><circle cx="47.708" cy="49.419" r="3.879" style="fill:#fcecdc" transform="translate(13.792 103.369) scale(.80736)"/><circle cx="47.708" cy="49.419" r="3.879" style="fill:#fcecdc" transform="translate(111.475 117.147) scale(.80736)"/><circle cx="47.708" cy="49.419" r="3.879" style="fill:#fcecdc" transform="translate(109.613 85.248) scale(.80736)"/><circle cx="47.708" cy="49.419" r="3.879" style="fill:#fcecdc" transform="translate(71.384 115.906) scale(.80736)"/></svg>

<?xml version="1.0" encoding="UTF-8" standalone="no"?>
<!DOCTYPE svg PUBLIC "-//W3C//DTD SVG 1.1//EN" "http://www.w3.org/Graphics/SVG/1.1/DTD/svg11.dtd">
<svg width="100%" height="100%" viewBox="0 0 192 192" version="1.1" xmlns="http://www.w3.org/2000/svg" xmlns:xlink="http://www.w3.org/1999/xlink" xml:space="preserve" xmlns:serif="http://www.serif.com/" style="fill-rule:evenodd;clip-rule:evenodd;stroke-linejoin:round;stroke-miterlimit:2;">
    <g id="Layer1">
        <g transform="matrix(1,0,0,1,8,8)">
            <path d="M164.5,21.5C164.5,15.981 160.019,11.5 154.5,11.5L21.5,11.5C15.981,11.5 11.5,15.981 11.5,21.5L11.5,154.5C11.5,160.019 15.981,164.5 21.5,164.5L154.5,164.5C160.019,164.5 164.5,160.019 164.5,154.5L164.5,21.5Z" style="fill:rgb(151,151,151);"/>
        </g>
        <path d="M117.646,19.5L162.5,19.5C168.019,19.5 172.5,23.981 172.5,29.5L172.5,74.354L122.988,123.866C115.89,130.964 106.263,134.952 96.225,134.952C86.187,134.952 76.56,130.964 69.462,123.866C69.019,123.424 68.576,122.981 68.134,122.538C61.036,115.44 57.048,105.813 57.048,95.775C57.048,85.737 61.036,76.11 68.134,69.012L117.646,19.5Z" style="fill:rgb(249,222,129);"/>
        <path d="M132.045,19.5L162.5,19.5C168.019,19.5 172.5,23.981 172.5,29.5L172.5,59.955L115.979,116.476C110.916,121.539 104.048,124.384 96.887,124.384C89.727,124.384 82.859,121.539 77.795,116.476C77.039,115.719 76.281,114.961 75.524,114.205C70.461,109.141 67.616,102.273 67.616,95.113C67.616,87.952 70.461,81.084 75.524,76.021L132.045,19.5Z" style="fill:rgb(248,193,140);"/>
        <g transform="matrix(0.727851,0.727851,-0.727851,0.727851,96,-43.7473)">
            <circle cx="96" cy="96" r="20.659" style="fill:rgb(255,131,125);"/>
        </g>
        <g>
            <g transform="matrix(1.14336,0,0,1.14336,-6.3628,-6.60812)">
                <circle cx="47.708" cy="49.419" r="3.879" style="fill:rgb(252,236,220);"/>
            </g>
            <g transform="matrix(1.14336,0,0,1.14336,-5.36983,33.9795)">
                <circle cx="47.708" cy="49.419" r="3.879" style="fill:rgb(252,236,220);"/>
            </g>
            <g transform="matrix(1.14336,0,0,1.14336,20.8262,88.0678)">
                <circle cx="47.708" cy="49.419" r="3.879" style="fill:rgb(252,236,220);"/>
            </g>
            <g transform="matrix(1.14336,0,0,1.14336,73.7018,83.6329)">
                <circle cx="47.708" cy="49.419" r="3.879" style="fill:rgb(252,236,220);"/>
            </g>
            <g transform="matrix(0.80736,0,0,0.80736,29.0985,5.5619)">
                <circle cx="47.708" cy="49.419" r="3.879" style="fill:rgb(252,236,220);"/>
            </g>
            <g transform="matrix(0.80736,0,0,0.80736,38.1593,-12.0633)">
                <circle cx="47.708" cy="49.419" r="3.879" style="fill:rgb(252,236,220);"/>
            </g>
            <g transform="matrix(0.80736,0,0,0.80736,-3.6695,27.9037)">
                <circle cx="47.708" cy="49.419" r="3.879" style="fill:rgb(252,236,220);"/>
            </g>
            <g transform="matrix(0.80736,0,0,0.80736,2.10067,76.311)">
                <circle cx="47.708" cy="49.419" r="3.879" style="fill:rgb(252,236,220);"/>
            </g>
            <g transform="matrix(0.80736,0,0,0.80736,13.7916,103.369)">
                <circle cx="47.708" cy="49.419" r="3.879" style="fill:rgb(252,236,220);"/>
            </g>
            <g transform="matrix(0.80736,0,0,0.80736,111.475,117.147)">
                <circle cx="47.708" cy="49.419" r="3.879" style="fill:rgb(252,236,220);"/>
            </g>
            <g transform="matrix(0.80736,0,0,0.80736,109.613,85.2477)">
                <circle cx="47.708" cy="49.419" r="3.879" style="fill:rgb(252,236,220);"/>
            </g>
            <g transform="matrix(0.80736,0,0,0.80736,71.3839,115.906)">
                <circle cx="47.708" cy="49.419" r="3.879" style="fill:rgb(252,236,220);"/>
            </g>
        </g>
    </g>
</svg>
